X:1177
T:Barley Butt. WM.024
M:6/8
L:1/8
Q:130
S:Wm.Mittell's MS,New Romney,Kent,1799
R:Jig
O:England
A:Kent
Z:vmp.Chris Partington
K:D
A|d2f ede|f2dB2d|A2d dcd|f3e2A|!
d2f ede|f2d B2d|A2d dcd|f3d2:|!
|:e/-f/|a2f fdf|a2f fdf|a2fb2g|a3g2f|!
g2e ece|g2e ece|g2e faf|(d3c2):|]
